src/assets/filled/HomeTrendUp.svg

<svg width="24" height="24" viewBox="0 0 24 24"  xmlns="http://www.w3.org/2000/svg">
<path d="M20.04 6.81969L14.28 2.78969C12.71 1.68969 10.3 1.74969 8.78999 2.91969L3.77999 6.82969C2.77999 7.60969 1.98999 9.20969 1.98999 10.4697V17.3697C1.98999 19.9197 4.05999 21.9997 6.60999 21.9997H17.39C19.94 21.9997 22.01 19.9297 22.01 17.3797V10.5997C22.01 9.24969 21.14 7.58969 20.04 6.81969ZM16.88 13.3997C16.88 13.7897 16.57 14.0997 16.18 14.0997C15.79 14.0997 15.48 13.7897 15.48 13.3997V13.2197L12.76 15.9397C12.61 16.0897 12.41 16.1597 12.2 16.1397C12 16.1197 11.81 15.9997 11.7 15.8297L10.68 14.3097L8.29999 16.6897C8.15999 16.8297 7.98999 16.8897 7.80999 16.8897C7.62999 16.8897 7.44999 16.8197 7.31999 16.6897C7.04999 16.4197 7.04999 15.9797 7.31999 15.6997L10.3 12.7197C10.45 12.5697 10.65 12.4997 10.86 12.5197C11.07 12.5397 11.26 12.6497 11.37 12.8297L12.39 14.3497L14.5 12.2397H14.32C13.93 12.2397 13.62 11.9297 13.62 11.5397C13.62 11.1497 13.93 10.8397 14.32 10.8397H16.18C16.27 10.8397 16.36 10.8597 16.45 10.8897C16.62 10.9597 16.76 11.0997 16.83 11.2697C16.87 11.3597 16.88 11.4497 16.88 11.5397V13.3997Z" />
</svg>

<?xml version="1.0" encoding="UTF-8"?>
<svg width="24" height="24" viewBox="0 0 24 24" xmlns="http://www.w3.org/2000/svg">
 <path d="m20.04 6.8197-5.76-4.03c-1.57-1.1-3.98-1.04-5.49 0.13l-5.01 3.91c-1 0.78-1.79 2.38-1.79 3.64v6.9c0 2.55 2.07 4.63 4.62 4.63h10.78c2.55 0 4.62-2.07 4.62-4.62v-6.78c0-1.35-0.87-3.01-1.97-3.78zm-3.16 6.58c0 0.39-0.31 0.7-0.7 0.7s-0.7-0.31-0.7-0.7v-0.18l-2.72 2.72c-0.15 0.15-0.35 0.22-0.56 0.2-0.2-0.02-0.39-0.14-0.5-0.31l-1.02-1.52-2.38 2.38c-0.14 0.14-0.31 0.2-0.49 0.2s-0.36-0.07-0.49-0.2c-0.27-0.27-0.27-0.71 0-0.99l2.98-2.98c0.15-0.15 0.35-0.22 0.56-0.2s0.4 0.13 0.51 0.31l1.02 1.52 2.11-2.11h-0.18c-0.39 0-0.7-0.31-0.7-0.7s0.31-0.7 0.7-0.7h1.86c0.09 0 0.18 0.02 0.27 0.05 0.17 0.07 0.31 0.21 0.38 0.38 0.04 0.09 0.05 0.18 0.05 0.27v1.86z"/>
</svg>
